X:222
T: Ruf um fruchtbares Wetter
N: A0575
O: Europa, Mitteleuropa, Deutschland
N: Andernacher Gsgb Coelln 1608 S. 278
R: Romanze, Ballade, Lied, religioeses Lied
M: 4/2
L: 1/4
K: G
G4G2G2 | A2c2d2d2 | c4
d2=f2 | e2d2cAB2 | A4z2
c2 | c2c2d2c2 | _B2G2=F4 | z2
G2A3B | c2BA_B2A2 | G8

